X: 58
T: 10 Below Jig
C: J-21
M: 6/8
Z: Transcribed to abc by Mary Lou Knack
R: jig
K: G
D|: "G"GAB "C"c2B| "D"Adc "G"BAG| "C"EFG "G"DGA| "Em"BdB "D"A2D|
    "G"GAB "Am"c2B| "D"Adc "Em"BAG| "C"EFG "G"DFG| "D"AdF "G"G2[DA]:|
\
"G"BAG "Em"g2g| "C"ege "G"dBG| BGB "Em"dge| "G"dBG "D"A2B|
"C"cec "G"BdB| "A7"GFG "D"AFD| "C"EFG "G"DFG| "D"AdF "G"G2A|
"G"BAG "Em"g2g| "C"ege "G"dBG| BGB "Em"dge| "G"dBG "D"A2B|
"Am"ceg "Em"Bdg| "A7"ABG "D"FED| "C"EFG "G"DFG| "D"AdF "G"G2|]
%%text 9/1/98.  Waiting for my car to be towed!
% ---------- page 29 ----------
